X: 1
T: Lord MacDonald
M: 4/4
L: 1/8
R: reel
K: Gmaj
|:B | d3 e dBgB | dBgB aAAB | d^cde dBgB |  (3A.B.c. BA BG G :||
|B | DGBG AGBG | DGBG AGEG | DGBG AGBG | DEDC B,G,G,G|
DGBG AGBG | DGBG AGEc | BAGF GFED | EFGA  BGG ||
